findly-builder/apps/searchassist/src/assets/icons/ppt_logo.svg

<svg width="30" height="39" viewBox="0 0 30 39" fill="none" xmlns="http://www.w3.org/2000/svg">
<path d="M30 10.8333V36.8333C30 38.0304 29.0411 39 27.8571 39H2.14286C0.958929 39 0 38.0304 0 36.8333V2.16667C0 0.969583 0.958929 0 2.14286 0H19.2857L30 10.8333Z" fill="#FFBCA5"/>
<path d="M19 0V8.8C19 10.0155 19.9845 11 21.2 11H30L19 0Z" fill="#FF784B"/>
<path d="M7.71733 25H9.0348V22.5426H10.4268C12.1065 22.5426 13.0085 21.5341 13.0085 20.1349C13.0085 18.7464 12.1172 17.7273 10.4446 17.7273H7.71733V25ZM9.0348 21.4595V18.8281H10.2422C11.2294 18.8281 11.6662 19.3608 11.6662 20.1349C11.6662 20.9091 11.2294 21.4595 10.2493 21.4595H9.0348ZM14.0961 27.0455H15.3816V24.1406H15.4348C15.6373 24.5384 16.0598 25.0959 16.9973 25.0959C18.2828 25.0959 19.2452 24.0767 19.2452 22.2798C19.2452 20.4616 18.2544 19.4744 16.9938 19.4744C16.0314 19.4744 15.6301 20.0533 15.4348 20.4474H15.3603V19.5455H14.0961V27.0455ZM15.3567 22.2727C15.3567 21.2145 15.8113 20.5291 16.6387 20.5291C17.4945 20.5291 17.9348 21.2571 17.9348 22.2727C17.9348 23.2955 17.4874 24.0412 16.6387 24.0412C15.8184 24.0412 15.3567 23.331 15.3567 22.2727ZM23.0698 19.5455H21.9938V18.2386H20.7083V19.5455H19.9341V20.5398H20.7083V23.5724C20.7012 24.5987 21.4469 25.103 22.4128 25.0746C22.7786 25.0639 23.0307 24.9929 23.1692 24.9467L22.9526 23.9418C22.8816 23.9595 22.736 23.9915 22.5762 23.9915C22.253 23.9915 21.9938 23.8778 21.9938 23.3594V20.5398H23.0698V19.5455Z" fill="white"/>
</svg>

<svg width="30" height="39" fill="none" xmlns="http://www.w3.org/2000/svg"><path d="M30 10.833v26A2.154 2.154 0 0 1 27.857 39H2.143A2.154 2.154 0 0 1 0 36.833V2.167C0 .97.959 0 2.143 0h17.143L30 10.833Z" fill="#FFBCA5"/><path d="M19 0v8.8a2.2 2.2 0 0 0 2.2 2.2H30L19 0Z" fill="#FF784B"/><path d="M7.717 25h1.318v-2.457h1.392c1.68 0 2.582-1.009 2.582-2.408 0-1.389-.892-2.408-2.564-2.408H7.717V25Zm1.318-3.54v-2.632h1.207c.987 0 1.424.533 1.424 1.307 0 .774-.437 1.324-1.417 1.324H9.035Zm5.061 5.585h1.286v-2.904h.053c.202.397.625.955 1.562.955 1.286 0 2.248-1.02 2.248-2.816 0-1.818-.99-2.806-2.251-2.806-.963 0-1.364.58-1.56.973h-.074v-.901h-1.264v7.5Zm1.26-4.772c0-1.058.455-1.744 1.283-1.744.855 0 1.296.728 1.296 1.744 0 1.023-.448 1.768-1.296 1.768-.82 0-1.282-.71-1.282-1.768Zm7.714-2.727h-1.076v-1.307h-1.286v1.306h-.774v.995h.774v3.032c-.007 1.027.739 1.531 1.705 1.503.366-.011.618-.082.756-.128l-.216-1.005c-.071.017-.217.05-.377.05-.323 0-.582-.114-.582-.633v-2.82h1.076v-.994Z" fill="#fff"/></svg>
